X: 19
T:Up Sligo
M:6/8
L:1/8
F:http://blackrosetheband.googlepages.com/ABCTUNES.ABC May 2009
S:Kevin Burke Live - Track 6
K:Em
EBB BAG|FDF AFD|EBB GBB|AGF E2D|
E2B BAG|FDF AB^c|ded ~B3|1 AGF E2D:|2 AGF E2 A|
:Bee ede|fef dBA|Bee ede|fe^c d2A|
Bee ede|faf dBA|(3B^cd B GBd|1 AGF E2A:|2 AGF E2D|

